Papirus-GTK/16x16/apps/kanatest.svg

<svg height="16" width="16" xmlns="http://www.w3.org/2000/svg"><rect fill="#e9a84a" height="16" rx=".80000001" transform="matrix(0 -1 -1 0 0 0)" width="16" x="-16" y="-16"/><path d="m7.5078125 1.9921875a.50005.50005 0 0 0 -.4941406.3945313c0 0-.1499007.678319-.3046875 1.6542968-.0046676-.0018545-.0130253-.0020204-.0175782-.0039062-.0409838-.0169761-.3002582-.2265862-.4765624-.4316406-.1763043-.2050546-.3027344-.3886719-.3027344-.3886719a.50005.50005 0 0 0 -.4257813-.2226563.50005.50005 0 0 0 -.3984375.7890625c0 0 .1543252.2247635.3691406.4746094.2148157.2498459.4570254.5416555.8515626.7050781.080689.0334225.1727449.0479898.2578124.0742188-.0711653.5723259-.1332447 1.1869241-.1660156 1.8320312-.011109.2186927.0451026.4289312.0410156.6503906-.4010008.0482449-.8377452-.0193584-1.2050781.09375-.9478555.2918621-1.7795243.8210775-2.1875 1.6699219-.1709446.3556718-.1371573.7577969-.0019531 1.0761719.1352042.318375.3566542.583182.6132812.8125.5132543.458637 1.162611.792131 1.8125.828125.5548448.03073 1.0694548-.231984 1.5761719-.501953.2809226.595633.6388712 1.125224 1.2089844 1.439453.8998571.495973 2.0674755.291066 3.0410155-.164062.48677-.227566.92904-.530549 1.253906-.919922.324867-.389374.53561-.902258.439454-1.441407-.166039-.9309618-.840705-1.6444162-1.6875-2.1367184-.182751-.1062456-.439252-.1069748-.638672-.1953125.02747-.038374.24414-.2949219.24414-.2949219a.50005.50005 0 1 0 -.820312-.5703124c0 0-.3592405.4168402-.4570315.5488281-.4414505-.1205169-.8222151-.3442239-1.2871094-.3945313-.3148422-.0340698-.6013307.0734034-.9160156.0722656.0039558-.1824529-.0404646-.3400904-.03125-.5214843.0302302-.5950927.0870204-1.1685332.1523437-1.703125.487632.0307327.9882961.0074047 1.4492188-.0273438.875472-.0660009 1.589844-.1972656 1.589844-.1972656a.50032038.50032038 0 1 0 -.179688-.984375c0 0-.6697597.1239867-1.4863279.1855469-.3987754.0300632-.8346162.0357513-1.2285156.0136718.1483054-.9381175.2910156-1.5937499.2910156-1.59375a.50005.50005 0 0 0 -.4785156-.6210937zm.7304687 6.3710937c.2652766.0287064.458053.1623535.7148438.2167969-.233453.2781765-.21816.3103662-.5136719.6152344-.2658795.2742976-.5668357.481848-.859375.7207031-.0880439-.4501813-.0673764-.9843062-.0898437-1.4960937.2620557.00222.4850821-.0850966.7480468-.0566407zm-1.7363281.1308594c.02744.6352572-.015607 1.2912227.1171875 1.8730474.015968.06996.0562868.124373.0742188.193359-.4301976.248147-.8553401.45666-1.1660156.439453-.2914773-.016144-.8476642-.258329-1.2011719-.574219-.1767539-.157945-.3030034-.328888-.3574219-.457031-.0544185-.1281431-.0508406-.1827464-.0175781-.2519531.2458061-.5114303.8006592-.9084402 1.5800781-1.1484375.2795034-.0860642.6507852-.0321914.9707031-.0742188zm3.4863281.4003906c.2595208.1001833.5966158.1194498.8144528.2460938.686083.3988684 1.106125.892443 1.205078 1.447266.034711.194628-.02605.389356-.222656.625-.196604.235643-.525448.475358-.908203.654297-.76551.357875-1.7290818.418912-2.1347655.195312-.3431461-.189131-.5011396-.741119-.7128906-1.189453.3893015-.319992.7910591-.631925 1.1289062-.9804689.4815839-.4968315.5229893-.6106394.8300781-.9980469z" fill-rule="evenodd" opacity=".4" overflow="visible"/></svg>

<?xml version="1.0" encoding="UTF-8" standalone="no"?>
<!-- Created with Inkscape (http://www.inkscape.org/) -->

<svg
   xmlns:dc="http://purl.org/dc/elements/1.1/"
   xmlns:cc="http://creativecommons.org/ns#"
   xmlns:rdf="http://www.w3.org/1999/02/22-rdf-syntax-ns#"
   xmlns:svg="http://www.w3.org/2000/svg"
   xmlns="http://www.w3.org/2000/svg"
   xmlns:sodipodi="http://sodipodi.sourceforge.net/DTD/sodipodi-0.dtd"
   xmlns:inkscape="http://www.inkscape.org/namespaces/inkscape"
   id="svg2817"
   height="16"
   width="16"
   version="1.0"
   inkscape:version="0.91 r13725"
   sodipodi:docname="kanatest.svg">
  <sodipodi:namedview
     pagecolor="#ffffff"
     bordercolor="#666666"
     borderopacity="1"
     objecttolerance="10"
     gridtolerance="10"
     guidetolerance="10"
     inkscape:pageopacity="0"
     inkscape:pageshadow="2"
     inkscape:window-width="1600"
     inkscape:window-height="849"
     id="namedview21"
     showgrid="false"
     inkscape:zoom="14.06"
     inkscape:cx="-3.8108108"
     inkscape:cy="9.3044883"
     inkscape:window-x="0"
     inkscape:window-y="0"
     inkscape:window-maximized="1"
     inkscape:current-layer="svg2817" />
  <metadata
     id="metadata57">
    <rdf:RDF>
      <cc:Work
         rdf:about="">
        <dc:format>image/svg+xml</dc:format>
        <dc:type
           rdf:resource="http://purl.org/dc/dcmitype/StillImage" />
        <dc:title />
      </cc:Work>
    </rdf:RDF>
  </metadata>
  <defs
     id="defs2819" />
  <rect
     style="fill:#e9a84a"
     id="rect4203"
     transform="matrix(0,-1,-1,0,0,0)"
     rx="0.80000001"
     ry="0.80000001"
     height="16"
     width="16"
     y="-16"
     x="-16" />
  <g
     id="g4354"
     style="opacity:0.4">
    <path
       style="color:#000000;font-style:normal;font-variant:normal;font-weight:normal;font-stretch:normal;font-size:medium;line-height:normal;font-family:sans-serif;text-indent:0;text-align:start;text-decoration:none;text-decoration-line:none;text-decoration-style:solid;text-decoration-color:#000000;letter-spacing:normal;word-spacing:normal;text-transform:none;direction:ltr;block-progression:tb;writing-mode:lr-tb;baseline-shift:baseline;text-anchor:start;white-space:normal;clip-rule:nonzero;display:inline;overflow:visible;visibility:visible;opacity:1;isolation:auto;mix-blend-mode:normal;color-interpolation:sRGB;color-interpolation-filters:linearRGB;solid-color:#000000;solid-opacity:1;fill:#000000;fill-opacity:1;fill-rule:evenodd;stroke:none;stroke-width:1;stroke-linecap:round;stroke-linejoin:round;stroke-miterlimit:4;stroke-dasharray:none;stroke-dashoffset:0;stroke-opacity:1;color-rendering:auto;image-rendering:auto;shape-rendering:auto;text-rendering:auto;enable-background:accumulate"
       d="M 7.5078125 1.9921875 A 0.50005 0.50005 0 0 0 7.0136719 2.3867188 C 7.0136719 2.3867188 6.8637712 3.0650378 6.7089844 4.0410156 C 6.7043168 4.0391611 6.6959591 4.0389952 6.6914062 4.0371094 C 6.6504224 4.0201333 6.391148 3.8105232 6.2148438 3.6054688 C 6.0385395 3.4004142 5.9121094 3.2167969 5.9121094 3.2167969 A 0.50005 0.50005 0 0 0 5.4863281 2.9941406 A 0.50005 0.50005 0 0 0 5.0878906 3.7832031 C 5.0878906 3.7832031 5.2422158 4.0079666 5.4570312 4.2578125 C 5.6718469 4.5076584 5.9140566 4.799468 6.3085938 4.9628906 C 6.3892828 4.9963131 6.4813387 5.0108804 6.5664062 5.0371094 C 6.4952409 5.6094353 6.4331615 6.2240335 6.4003906 6.8691406 C 6.3892816 7.0878333 6.4454932 7.2980718 6.4414062 7.5195312 C 6.0404054 7.5677761 5.603661 7.5001728 5.2363281 7.6132812 C 4.2884726 7.9051433 3.4568038 8.4343587 3.0488281 9.2832031 C 2.8778835 9.6388749 2.9116708 10.041 3.046875 10.359375 C 3.1820792 10.67775 3.4035292 10.942557 3.6601562 11.171875 C 4.1734105 11.630512 4.8227672 11.964006 5.4726562 12 C 6.027501 12.03073 6.542111 11.768016 7.0488281 11.498047 C 7.3297507 12.09368 7.6876993 12.623271 8.2578125 12.9375 C 9.1576696 13.433473 10.325288 13.228566 11.298828 12.773438 C 11.785598 12.545872 12.227868 12.242889 12.552734 11.853516 C 12.877601 11.464142 13.088344 10.951258 12.992188 10.412109 C 12.826149 9.4811472 12.151483 8.7676928 11.304688 8.2753906 C 11.121937 8.169145 10.865436 8.1684158 10.666016 8.0800781 C 10.693486 8.0417041 10.910156 7.7851562 10.910156 7.7851562 A 0.50005 0.50005 0 1 0 10.089844 7.2148438 C 10.089844 7.2148438 9.7306035 7.631684 9.6328125 7.7636719 C 9.191362 7.643155 8.8105974 7.419448 8.3457031 7.3691406 C 8.0308609 7.3350708 7.7443724 7.442544 7.4296875 7.4414062 C 7.4336433 7.2589533 7.3892229 7.1013158 7.3984375 6.9199219 C 7.4286677 6.3248292 7.4854579 5.7513887 7.5507812 5.2167969 C 8.0384132 5.2475296 8.5390773 5.2242016 9 5.1894531 C 9.875472 5.1234522 10.589844 4.9921875 10.589844 4.9921875 A 0.50032038 0.50032038 0 1 0 10.410156 4.0078125 C 10.410156 4.0078125 9.7403963 4.1317992 8.9238281 4.1933594 C 8.5250527 4.2234226 8.0892119 4.2291107 7.6953125 4.2070312 C 7.8436179 3.2689137 7.9863281 2.6132813 7.9863281 2.6132812 A 0.50005 0.50005 0 0 0 7.5078125 1.9921875 z M 8.2382812 8.3632812 C 8.5035578 8.3919876 8.6963342 8.5256347 8.953125 8.5800781 C 8.719672 8.8582546 8.734965 8.8904443 8.4394531 9.1953125 C 8.1735736 9.4696101 7.8726174 9.6771605 7.5800781 9.9160156 C 7.4920342 9.4658343 7.5127017 8.9317094 7.4902344 8.4199219 C 7.7522901 8.4221419 7.9753165 8.3348253 8.2382812 8.3632812 z M 6.5019531 8.4941406 C 6.5293931 9.1293978 6.4863461 9.7853633 6.6191406 10.367188 C 6.6351086 10.437148 6.6754274 10.491561 6.6933594 10.560547 C 6.2631618 10.808694 5.8380193 11.017207 5.5273438 11 C 5.2358665 10.983856 4.6796796 10.741671 4.3261719 10.425781 C 4.149418 10.267836 4.0231685 10.096893 3.96875 9.96875 C 3.9143315 9.8406069 3.9179094 9.7860036 3.9511719 9.7167969 C 4.196978 9.2053666 4.7518311 8.8083567 5.53125 8.5683594 C 5.8107534 8.4822952 6.1820352 8.536168 6.5019531 8.4941406 z M 9.9882812 8.8945312 C 10.247802 8.9947145 10.584897 9.013981 10.802734 9.140625 C 11.488817 9.5394934 11.908859 10.033068 12.007812 10.587891 C 12.042523 10.782519 11.981762 10.977247 11.785156 11.212891 C 11.588552 11.448534 11.259708 11.688249 10.876953 11.867188 C 10.111443 12.225063 9.1478712 12.2861 8.7421875 12.0625 C 8.3990414 11.873369 8.2410479 11.321381 8.0292969 10.873047 C 8.4185984 10.553055 8.820356 10.241122 9.1582031 9.8925781 C 9.639787 9.3957466 9.6811924 9.2819387 9.9882812 8.8945312 z "
       id="path4159" />
  </g>
</svg>
